X:1347
L:1/8
M:2/4
K:Bb
"^A""^frisch, froh" B,3 C | D3 C | B,2 C2 | DF Bc | d3 c | B2 d2 | F2 d2 | c3 B | A2 c2 | F2 B2 | 
 d3 c | B4 | B,2 C2 | D3 C | B,2 C2 | DF Bc | d3 c | B2 d2 | F2 d2 | c3 B | A2 c2 | F2 d2 | (B4 | 
 B2) z2 ||[M:3/4]"^B""^gemutliches Walzertempo" c4 E2 | F3 f cd | B4 D2 | F3 f Bd | c4 E2 | 
 F3 f cd | B2 D2 F2 | B6 | c4 E2 | F3 f cd | B4 D2 | F3 f Bd | c4 E2 | F6 | 
"_jeder Ton breit" !fermata!f2 !fermata!c2 !fermata!d2 | B6 ||[M:3/4]"^C""^recht zugig" FF | 
 f3 e d2 | c2 fe dc | B3 c d2 | F2 DF Bd | c3 d e2 | F2 EF Ac | B3 c d2 | F4 FF | f3 e d2 | 
 c2 fe dc | B3 c d2 | F2 DF Bd | c3 d e2 | F2 EF dc | (B6 | B2) z2 |]

